X: 39090
T: Sweeney's Buttermilk
R: reel
M: 4/4
K: Bdorian
|:"Bm"F~B3 F~B3|"G"dcBc "A"A~E3|"Bm"F~B3 "A"ABce|"F#m"afec Baga|"Bm"f2 ec fcec|
"A"BABc BAFE|"Bm"F~B3 "A"ABce|1 "F#m"afec "Bm"B4:|2 "F#m"faec "Bm" B2 BA||
|:"Bm"FBdc B~F3|"A"EAcB A~E3|"Bm"FBdc Bdfb|"A"afec "G"d2cd|"Bm"Bcde fB{c}Bg|
"A"afec ABce|"Bm"f{g}fbf "A"af{g}fg|1 "F#m"afec "Bm"B2 BA:|2 "F#m"afec "Bm"B4||

